resources/svg/ruby.svg

<svg xmlns="http://www.w3.org/2000/svg" viewBox="0 0 15 15" fill="currentColor"><path d="M4.29301 4L8.05751 0.235504L9.73062 4H4.29301Z" fill="black"/><path d="M14.293 0L10.6613 3.63175L9.04716 0H14.293Z" fill="black"/><path d="M0.235501 8.05751L4.00012 9.73067V4.29289L0.235501 8.05751Z" fill="black"/><path d="M3.63174 10.6613L0.000118256 9.04721V14.2929L3.63174 10.6613Z" fill="black"/><path d="M5.00012 9.29289L9.29301 5H5.00012V9.29289Z" fill="black"/><path d="M15.0001 13.731L11.093 4.61427L15.0001 0.707107V13.731Z" fill="black"/><path d="M14.048 14.048L10.3314 5.37585L5.37584 10.3314L14.048 14.048Z" fill="black"/><path d="M4.61427 11.093L13.7307 15H0.707225L4.61427 11.093Z" fill="black"/></svg>

<svg xmlns="http://www.w3.org/2000/svg" viewBox="0 0 15 15" fill="currentColor"><path d="M4.293 4L8.058.236 9.73 4H4.293zm10-4l-3.632 3.632L9.047 0h5.246zM.236 8.058L4 9.73V4.293L.236 8.058zm3.396 2.603L0 9.047v5.246l3.632-3.632zM5 9.293L9.293 5H5v4.293zm10 4.438l-3.907-9.117L15 .707v13.024zm-.952.317l-3.717-8.672-4.955 4.955 8.672 3.717zm-9.434-2.955L13.731 15H.707l3.907-3.907z" fill="currentColor"/></svg>
